assets/icons/24px/outline/link-24px.svg

<svg width="24" height="24" viewBox="0 0 24 24" fill="none" xmlns="http://www.w3.org/2000/svg">
<path d="M9.3 9C9.85228 9 10.3 8.55228 10.3 8C10.3 7.44772 9.85228 7 9.3 7V9ZM9.3 17C9.85228 17 10.3 16.5523 10.3 16C10.3 15.4477 9.85228 15 9.3 15V17ZM14.7 15C14.1477 15 13.7 15.4477 13.7 16C13.7 16.5523 14.1477 17 14.7 17V15ZM14.7 7C14.1477 7 13.7 7.44772 13.7 8C13.7 8.55228 14.1477 9 14.7 9V7ZM7 9H9.3V7H7V9ZM9.3 15H7V17H9.3V15ZM17 15H14.7V17H17V15ZM14.7 9H17V7H14.7V9ZM2 12C2 14.7614 4.23857 17 7 17V15C5.34314 15 4 13.6569 4 12H2ZM20 12C20 13.6569 18.6569 15 17 15V17C19.7614 17 22 14.7614 22 12H20ZM22 12C22 9.23858 19.7614 7 17 7V9C18.6569 9 20 10.3431 20 12H22ZM4 12C4 10.3431 5.34315 9 7 9V7C4.23858 7 2 9.23858 2 12H4Z" fill="white"/>
<path d="M15 12H9" stroke="white" stroke-width="2" stroke-linecap="round"/>
</svg>

<svg width="24" height="24" fill="none" xmlns="http://www.w3.org/2000/svg"><path d="M9.3 9a1 1 0 0 0 0-2v2zm0 8a1 1 0 1 0 0-2v2zm5.4-2a1 1 0 1 0 0 2v-2zm0-8a1 1 0 1 0 0 2V7zM7 9h2.3V7H7v2zm2.3 6H7v2h2.3v-2zm7.7 0h-2.3v2H17v-2zm-2.3-6H17V7h-2.3v2zM2 12a5 5 0 0 0 5 5v-2a3 3 0 0 1-3-3H2zm18 0a3 3 0 0 1-3 3v2a5 5 0 0 0 5-5h-2zm2 0a5 5 0 0 0-5-5v2a3 3 0 0 1 3 3h2zM4 12a3 3 0 0 1 3-3V7a5 5 0 0 0-5 5h2z" fill="#fff"/><path d="M15 12H9" stroke="#fff" stroke-width="2" stroke-linecap="round"/></svg>
